X:24821559488162
T:9-2-12-5-8-4-7-7-6-10-12-12-11-9-2-11
%%setfont-1 Courier-Bold 8
T:$1K.516f::119:22:10:85:99:55:118:91:25:77:108:92:144:115:109:78::$0
T:$1Perm. No.: 24821559488162$0
M:3/8
L:1/8
Q:1/8=111
%%staves [1 2]
V:1 clef=treble
V:2 clef=bass
K:C
%1
[V:1]|: e/c/g/e/c'/g/ |\
[V:2]|: [E,2C,2]z |\
%2
[V:1] ecG   |\
[V:2] C,2z |\
%3
[V:1] B/A/B/c/d/B/ |\
[V:2] G,2z |\
%4
[V:1] ceG |\
[V:2] [G,2E,2]z |\
%5
[V:1] ^fad |\
[V:2] [A,2C,2][A,C,] |\
%6
[V:1] gbd |\
[V:2] [D,2B,,2]z |\
%7
[V:1] e/a/g/b/^f/a/ \
[V:2] C,D,D,, \
%8a
[V:1]|1 [g2d2B2G2]z :|2
[V:2]|1 G,,G,/=F,/E,/D,/ :|2
%8b
[V:1] [g2d2B2G2]z |:\
[V:2] G,,B,/G,/^F,/E,/ |:\
%9
[V:1] D/^F/A/d/^f/a/ |\
[V:2] D,2C, |\
%10
[V:1] g/b/gd |\
[V:2] [D,2B,,2][G,B,,] |\
%11
[V:1] (egc') |\
[V:2] [G,2C,2][E,C,] |\
%12
[V:1] [dB]g/b/d |\
[V:2] [G,2G,,2]G, |\
%13
[V:1] gce |\
[V:2] [E,/C,/]G,/[E,/C,/]G,/[E,/C,/]G,/ |\
%14
[V:1] c/G/e/c/g/e/ |\
[V:2] [E,2C,2]z |\
%15
[V:1] d/f/d/f/B/d/ |\
[V:2] [A,2F,2][DG,] |\
%16
[V:1] cCz :|]
[V:2] C,2C,, :|]
